X:1
T:Title
%%score { ( 1 5 ) | ( 2 3 4 ) }
L:1/8
Q:1/4=94
M:4/4
K:Gb
V:1 treble nm="Grand Piano"
V:5 treble 
V:2 bass 
V:3 bass 
V:4 bass 
V:1
 [DGB]3 [GB] [DFd]2 .[DFA]2 | [DGB]2 [DGB]6 | ABcA [B,DG]2 [CF]D | [DBd]2 [DBd]4 [DFc]2 | %4
w: May~F.~Lawrence * * *||||
 [DGB]3 [GB] [DFd]2 .[CFA]2 | z2 B6 | z2 .c2 z2 .F2 | [B,DG]2 [B,DG]6 |] %8
w: ||||
V:2
 z2 z D z2 z[K:treble] c | G,,2 D,2 B,2 D,2 | z4 z2 D,2 | G,,2 D,2 B,2 D,2 | %4
 z2 z D z2 z[K:treble] c | z2 [B,F]2 [E,,E,]4 | E,-[=G,,E,][A,,E,]C, [D,B,D]2 [D,,D,]2 | %7
 D,2 D,2 G,4 |] %8
V:3
 z2 D,2 z2 D,2[K:treble] | x8 | C,B,,A,,C, D,2 z D,, | x8 | z2 D,2 z2 D,2[K:treble] | %5
 [=D,,=D,]4 z4 | .A,,2 z2 z4 | G,,8 |] %8
V:4
 G,,4 D,,4[K:treble] | x8 | x8 | x8 | G,,4 D,,4[K:treble] | x8 | x8 | x8 |] %8
V:5
 x8 | x8 | [CE]2 [CE]2 z4 | x8 | x8 | [B,FB]2 z2 [B,G]2 [B,G]2 | %6
 [CEA][DEB][CE]-[CEA] G2 [CD]-[CDA] | x8 |] %8

